X:1
T:Title
%%score { 1 | ( 2 3 ) }
L:1/8
Q:1/4=100
M:6/8
K:C
V:1 treble nm="Grand Piano"
V:2 bass 
V:3 bass 
V:1
 [Ec]2 [Ec] [Ec][CGB][FA] | [EG]2 E C3 | [B,D]2 [CE] [DF]G[B,FA] | [CEG]3 [G,CE]3 | %4
w: Warren~W.~Bentley * * * *||||
 [Ec]2 [Ec] [Ec][GB][CFA] | [CEG]2[K:bass] [G,CE] [E,C]3 | [CEG]2 [G,CE][K:bass] [G,CE][B,D][E,C] | %7
w: |||
 [F,B,D]3 [E,C]3 | [B,D]2 [CE] [DF][CE][B,D] | [CE]2 [FA] [EG]3 | ^F2 G ABc | B2 A [B,G]3 | %12
w: |||||
 [Ec]2 [Ec] [Ec][CGB][FA] |[M:15/16] [EG]->[EG]EA3/2- A3 |[M:3/4] G2 AB cd | d3 [Ec]3 |] %16
w: ||||
V:2
 [C,G,]2 [C,G,] .[C,G,]2 [C,C] | [C,C]2 [C,G,C] [C,E,]3 | [G,,G,]2 [G,,G,] z EG,, | C,3 C,3 | %4
 [C,G,]2 [C,G,] G,CC, | C,2 C, C,3 | C,2 C, z F,C, | G,,3 C,3 | [G,,G,]2 [G,,G,] [G,,G,]2 [G,,G,] | %9
 [C,G,]2 [C,C] [C,C]3 | [D,CD]2 [D,B,D] [^F,D][G,D][D,A,D] | [D,G,D]2 [D,^F,C] [G,,G,]3 | %12
 [C,G,]2 [C,G,] .[C,G,]2 [C,C] |[M:15/16] [C,C]->[C,C][K:treble][G,C][F,CF]3/2- [F,CF]3 | %14
[M:3/4] z2 z D z2 | [G,B,F]3[K:bass] [C,C]3 |] %16
V:3
 x6 | x6 | z3 .[G,,G,]3 | x6 | z3 .C,3 | x6 | z3 .C,3 | x6 | x6 | x6 | z3 .D,3 | x6 | x6 | %13
[M:15/16] x2[K:treble] x11/2 |[M:3/4] [G,B,F]2 [G,CF][G,F]- [G,CF][G,B,F] | x3[K:bass] x3 |] %16

